X:1
T:Levita Laurentius
T:Levita Laurentius
T:Ivo de Vento
T:Source : Liber mottetorum 4 vocum---Monachij---A.Berg---1571 Editor : André Vierendeels (26/01/14).
C:Ivo de Vento
%%score [ 1 [ 2 3 ] 4 ]
L:1/8
Q:1/4=100
M:2/2
K:F
V:1 treble nm="Superius" snm="S"
V:2 treble-8 nm="Tenor 1" snm="T 1"
V:3 treble-8 nm="Tenor 2" snm="T 2"
V:4 bass nm="Bassus" snm="B"
V:1
 z4 c4 | F4 G2 B2 | A2 A2 G4 | z8 | c4 F4 | G2 B2 A2 G2 | F2 A3 A G2 | F2 A2 G2 F2- | F2 E2 F2 A2 | %9
w: Le-|vi- ta Lau-|ren- ti- us,||le- vi-|ta Lau- ren- ti-|us bo- num o-|pus o- pe- ra-|* tus est, bo-|
 A2 c3 B/A/ B2 | c2 A3 F B2 | A2 G3 F F2- | F2 E2 F4 | z4 z2 F2- | F2 F2 F2 E2 | FG AB c4 | %16
w: num o- * * *|pus o- * *|pe- ra- * *|* tus est,|qui|_ per si- gnum|san- * * * *|
 F2 Bc dc c2- | cB/A/ B2 c4 | z2 G2 A2 F2 | G2 G2 G4 | A4 z2 G2- | G2 A4 F2 | G3 A F4 | E4 z4 | %24
w: cte cru- * * * *|* * * * cis|cae- cos il-|lu- mi- na-|vit, cae-|* cos il-|lu- mi- na-|vit,|
 C4 D2 D2 | E2 C2 DE FG |"^-natural" AB c4 B2 | c4 z4 | F4 G2 A2 | B2 G2 AB cA | B3 A/G/ AD d2- | %31
w: et the- sau-|ros ec- cle- * * *|* * * si-|ae,|et the- sau-|ros ec- cle- * * *||
 d2 c2 d4 | z4 z2 G2 | A2 B2 c2 c2- | c2 BA B2 A2- | AG F4 E2 | F4 z4 | z2 F2 F2 E2 | F3 E D2 D2 | %39
w: * si- ae,|et|the- sau- ros ec-|* * * * cle-|* * * si-|ae|de- dit pau-|pe- * * ri-|
 C2 c2 c2 B2 | c3 G A2 G2 | E4 z4 | z2 F2 F2 E2 | F3 E/D/ C2 E2 | D4 z2 C2- | C2 C2 F2 G2- | %46
w: bus, de- dit pau-|pe- * * ri-|bus,|de- dit pau-|pe- * * * ri-|bus, de|_ dit pau- pe-|
 GF F4 E2 | F8- | F8- | F8 |] %50
w: * * * ri-|bus.|_||
V:2
 f4 c4 | d2 f2 e2 d2 | c2 f3 f e2 | f2 a2 g2 f2- | f2 e2 d2 d2- | d2 f3 e/d/ e2 | c2 f2 e3 e | %7
w: Le- vi-|ta Lau- ren- ti-|us bo- num o-|pus o- pe- ra-|* tus est, le-|* vi- * * *|ta Lau- ren- ti-|
 d2 c2 G2 B2 | c4 z2 f2- | f2 e2 g4 | a2 f4 f2 | f2 e2 d4 | z2 c4 c2 | c2 A2 c2 d2 | cA d2 c2 c2- | %15
w: us, Lau- ren- ti-|us bo-|* num o-|pus o- pe-|ra- tus est,|qui per|si- gnum san- cte|cru- * * cis, qui|
 c2 c2 c2 A2 | Bc de f2 e2 | d4 c2 f2 | d2 d2 e2 c2 | d4 e2 e2 | f2 f2 B2 d2 | G2 c2 z4 | %22
w: _ per si- gnum|san- * * * * cte|cru- cis, cae-|cos il- lu- mi-|na- vit, cae-|cos il- lu- mi-|na- vit,|
 z4 z2 F2 | G2 A2 B2 G2 | AF c4 B2 | c4 z4 | c4 d2 d2 | e3 c f2 ed | c2 d2 d2 c2 | B4 z2 c2 | %30
w: et|the- sau- ros ec-|cle- * * si-|ae,|et the- sau-|ros ec- cle- si- *|ae, ec- cle- si-|ae, et|
 d2 e2 f2 f2 | e3 e d2 d2 | e2 f2 g2 _e2 | _e2 d2 c2 A2 | d2 d2 d2 f2 | c2 d2 c4 | A4 c2 G2 | %37
w: the- sau- ros ec-|cle- si- ae, et|the- sau- ros ec-|cle- si- ae, et|the- sau- ros ec-|cle- si- ae|de- dit pau-|
 A2 GF G2 G2 | A4 z2 g2 | g2 f2 g3 g | e4 z4 | z2 c2 c2 G2 | A2 F2 G4 | z2 FG AB c2 | A2 B2 G3 G | %45
w: pe- * * * ri-|bus, de-|dit pau- pe- ri-|bus,|de- dit pau-|pe- ri- bus,|de- * * * *|dit pau- pe- ri-|
 A4 c4 | c2 B2 c3 c | A2 d2 d2 c2 | B3 c d2 d2 | c8 |] %50
w: bus, de-|dit pau- pe- ri-|bus, de- dit pau-|pe- * * ri-|bus.|
V:3
 z8 | z8 | z4 c4 | F4 G2 B2 | A2 G2 B2 B2- | B2 d2 c4 | A2 c4 c2 | A3 B c2 F2 | G4 A3 B | %9
w: ||Le-|vi- ta Lau-|ren- ti- us bo-|* num o-|pus o- pe-|ra- * * tus|est, bo- *|
 c2 c2 d4 | f2 c2 d4 | c3 B A2 B2 | G4 A4- | A2 A2 A2 B2 | A2 B2 G4 | A2 A3 B c2 | d2 B3 A c2 | %17
w: * num o-|pus o- pe-|ra- * * tus|est, qui|_ per si- gnum|san- cte cru-|cis, san- * *|cte cru- * *|
 G4 z2 A2 | B2 d4 c2- |"^-natural" cc B2 c2 c2- | c2 d4 B2 | c4 A2 d2- | dc c3 B/A/ B2 | c4 z4 | %24
w: cis, cae-|cos il- lu|_ mi- na- vit, cae-|* cos il-|lu- mi na-||vit,|
 z4 z2 F2 | G2 A2 B2 B2 | F2 A2 G2 G2- | G2 A2 B2 cB | AG FE DE F2- | F2 E2 F2 A2 | G4 z2 F2 | %31
w: et|the- sau- ros ec-|cle- si- ae, et|_ the- sau- ros _|_ _ _ _ _ _ _|* ec- cle- si-|e, et|
 G2 A2 B4 | A3 B GA B2 | AG G4 F2 | G4 z2 F2 | A2 B2 G2 G2 | F3 G AB c2- | c2 B2 c4 | z2 c2 c2 B2 | %39
w: the- sau- ros|ec- * * * *|* * cle- si-|ae, et|the- sau- ros ec-|cle- * * * *|* si- ae|de- dit pau-|
 c3 c d4 | z2 c2 c2 B2 | c3 B AG c2- | c2 B2 c2 c2 | B2 A4 G2- | GF F4 E2 | F2 A2 A2 G2 | %46
w: pe- ri- bus,|de- dit pau-|pe- * * * *|* ri- bus, de-|dit pau- pe-|* * * ri-|bus, de- dit pau-|
 A2 GF G3 G | F2 B2 B2 c2 | d3 c B2 B2 | A8 |] %50
w: pe- * * * ri-|bus, de- dit pau-|pe- * * ri-|bus.|
V:4
 z8 | z8 | F,4 C,4 | D,2 F,2 E,2 D,2 | C,4 z4 | z8 | F,4 C,4 | D,2 F,2 E,2 D,2 | C,4 F,4- | %9
w: ||Le- vi-|ta Lau- ren- ti-|us,||Le- vi-|ta Lau- ren- ti-|us bo-|
 F,2 A,2 G,4 | F,4 D,3 E, | F,2 C,2 D,2 B,,2 | C,4 F,4- | F,2 F,2 F,2 D,2 | F,2 B,,2 C,4 | F,,8 | %16
w: * num o-|pus o- *|* pe- ra- tus|est, qui|_ per si- gnum|san- cte cru-|cis,|
 z8 | z2 G,2 A,2 F,2 | G,2 B,2 A,4 | G,4 z4 | F,4 G,4 | E,2 F,4 D,2 | E,3 F, D,4 | %23
w: |cae- cos il-|lu- mi- na-|vit,|cae- cos|il- lu- mi-|na- * *|
 C,2 C,2 D,2 E,2 | F,2 E,2 D,3 D, | C,4 z4 | z8 | C,4 D,2 E,2 | F,E, D,C, B,,2 A,,2 | %29
w: vit, et the- sau-|ros ec- cle- si-|ae,||et the- sau-|ros _ _ _ _ ec-|
 G,,3 G,, F,,4 | z8 | z4 z2 B,,2 | C,2 D,2 _E,3 D, | C,2 B,,2 A,,3 A,, | G,,2 G,2 G,F, D,E, | %35
w: cle- si- ae,||et|the- sau- ros _|_ ec- cle- si-|ae, ec- cle- * * *|
 F,2 B,,2 C,4 | z2 F,2 F,2 E,2 | F,2 D,2 C,4 | F,4 G,2 G,2 | A,3 A, G,4 | C,4 F,2 G,2 | %41
w: * si- ae|de- dit pau-|pe- ri- bus,|de- dit pau-|pe- ri- bus,|de- dit pau-|
 A,3 G, F,2 E,2 | D,4 C,4 | D,3 E, F,2 C,2 | D,2 B,,2 C,4 | z2 F,2 F,2 E,2 | F,2 D,2 C,4 | %47
w: pe- * * ri-|bus, de-|dit _ _ pau-|pe- ri- bus,|de- dit pau-|pe- ri- bus,|
 z2 B,,2 B,,2 A,,2 | B,,6 B,,2 | F,,8 |] %50
w: de- dit pau-|pe- ri-|bus.|

